X: 11
T: Sancti Dei omnes / Christe, audi nos
N: Derived from Mou2096-Sancti_Dei_omnes.krn
C: Mouton
%%abc-version 2.0
%%abcx-abcm2ps-target-version 5.9.1 (29 Sep 2008)
%%abc-creator hum2abc beta
%%abcx-conversion-date 2019/02/17 07:22:04
%%abc-edited-by Jesse Rodin
%%abc-edited-by Will Watson 14/07/2011
%%abcx-initial-encoding-date 2011/07/14/
%%humdrum-veritas 446027767
%%humdrum-veritas-data 753138651
%%linebreak <none>
%%barnumbers 0
L: 1/4
M: 2/1
Q: 1/2=120
%%staves [1 2 3 4]
V: 1 clef=treble
V: 2 clef=treble-8
V: 3 clef=treble-8
V: 4 clef=bass
K: F
[V:1] F8 | 
[V:2] c8 | 
[V:3] F8 | 
[V:4] F,8 | 
[V:1] A4A4 | 
[V:2] f4f4 | 
[V:3] c4c4 | 
[V:4] F,4F,4 | 
[V:1] B4B4 | 
[V:2] f4f4 | 
[V:3] d4d4 | 
[V:4] B,,4B,,4 | 
[V:1] A4G4 | 
[V:2] f4e4 | 
[V:3] c4c4 | 
[V:4] F,4C,4 | 
[V:1] G4B4 | 
[V:2] d4e4 | 
[V:3] B4B4 | 
[V:4] G,4G,4 | 
[V:1] A6G2- | 
[V:2] f2edc2G2 | 
[V:3] c4A2B2- | 
[V:4] F,6_E,2 | 
[V:1] GFF4E2 | 
[V:2] B4c4 | 
[V:3] BAF2G4 | 
[V:4] D,4C,4 | 
[V:1] F6GA | 
[V:2] A4D2C2 | 
[V:3] F8 | 
[V:4] D,3C,B,,2A,,2 | 
[V:1] B3cA4 | 
[V:2] D2E2C4 | 
[V:3] z4F4 | 
[V:4] G,,4F,,4 | 
[V:1] z8 | 
[V:2] z8 | 
[V:3] F4G4 | 
[V:4] z2B,,4C,2- | 
[V:1] z8 | 
[V:2] z8 | 
[V:3] A3GF2E2 | 
[V:4] C,2D,4C,2- | 
[V:1] z8 | 
[V:2] z8 | 
[V:3] D4C2G2- | 
[V:4] C,2B,,2A,,2B,,2- | 
[V:1] z8 | 
[V:2] z8 | 
[V:3] G2F4E2 | 
[V:4] B,,2A,,2G,,4 | 
[V:1] F4F4 | 
[V:2] F3GAFB2- | 
[V:3] F4z4 | 
[V:4] F,,4z4 | 
[V:1] G8 | 
[V:2] BGc3dec | 
[V:3] z8 | 
[V:4] z8 | 
[V:1] A8 | 
[V:2] f3ed2c2- | 
[V:3] z8 | 
[V:4] z8 | 
[V:1] G3ABcA2- | 
[V:2] cdefd2c2- | 
[V:3] z8 | 
[V:4] z8 | 
[V:1] A2GFEDA2- | 
[V:2] c2BAG2F2 | 
[V:3] z8 | 
[V:4] z8 | 
[V:1] AGF4E2 | 
[V:2] A2B2G4 | 
[V:3] z8 | 
[V:4] z8 | 
[V:1] F4D4 | 
[V:2] F4z2B2- | 
[V:3] z8 | 
[V:4] B,,4B,,4 | 
[V:1] C4z2F2- | 
[V:2] B2A2B4 | 
[V:3] F4F4 | 
[V:4] F,,4B,,4 | 
[V:1] F2E2F3D | 
[V:2] G4A2B2 | 
[V:3] C4F4 | 
[V:4] z4z2D,2 | 
[V:1] E2E2F4 | 
[V:2] c4d4 | 
[V:3] z2G2B4 | 
[V:4] C,2C,2B,,4 | 
[V:1] z8 | 
[V:2] c8- | 
[V:3] A4G2A2- | 
[V:4] F,4E,2F,2- | 
[V:1] z8 | 
[V:2] c8 | 
[V:3] ABc2A2F2- | 
[V:4] F,G,A,2F,2A,2- | 
[V:1] z8 | 
[V:2] c8- | 
[V:3] FGA4GF | 
[V:4] A,G,F,4E,D, | 
[V:1] z2G4AB | 
[V:2] c8 | 
[V:3] E4z2G2 | 
[V:4] C,8- | 
[V:1] c3BA2G2- | 
[V:2] c4e3d | 
[V:3] G2ABc4 | 
[V:4] C,8- | 
[V:1] GFF4E2 | 
[V:2] c2B2c4 | 
[V:3] A2GFG4 | 
[V:4] C,8 | 
[V:1] F4F4 | 
[V:2] c4z4 | 
[V:3] F4z2B2- | 
[V:4] F,,4z4 | 
[V:1] F4G4- | 
[V:2] z8 | 
[V:3] B2B4c2- | 
[V:4] z8 | 
[V:1] G4F4 | 
[V:2] z8 | 
[V:3] c2B4d2- | 
[V:4] z8 | 
[V:1] A3Bc2d2- | 
[V:2] z8 | 
[V:3] def2e2d2 | 
[V:4] z8 | 
[V:1] d2c4=B2 | 
[V:2] z8 | 
[V:3] B2c2d4 | 
[V:4] z8 | 
[V:1] c8 | 
[V:2] f4f2e2 | 
[V:3] z8 | 
[V:4] z8 | 
[V:1] z4z2G2 | 
[V:2] d4c4 | 
[V:3] z4z2G2- | 
[V:4] F,4F,2E,2 | 
[V:1] A2GFE2G2- | 
[V:2] z2B2c3d | 
[V:3] G2F2G2C2 | 
[V:4] D,4C,4 | 
[V:1] G2FEF4- | 
[V:2] e4d3c | 
[V:3] c3BAGA2- | 
[V:4] z2C,2D,3E, | 
[V:1] F2E2F4 | 
[V:2] d2c4=B2 | 
[V:3] A2G4F2 | 
[V:4] F,2C,2D,4 | 
[V:1] E2G2A2G2- | 
[V:2] c6d2 | 
[V:3] G4z4 | 
[V:4] C,8 | 
[V:1] GFEDC4 | 
[V:2] e4z2e2 | 
[V:3] z2G2A2G2- | 
[V:4] C,4C,4 | 
[V:1] G4E2A2- | 
[V:2] edcBc4 | 
[V:3] GFEDC2c2- | 
[V:4] C,8 | 
[V:1] AGF4E2 | 
[V:2] z4z2c2 | 
[V:3] c2BAG4 | 
[V:4] z4z2C,2 | 
[V:1] F4z4 | 
[V:2] A2B4c2 | 
[V:3] z2F2G4 | 
[V:4] D,4E,4 | 
[V:1] z8 | 
[V:2] d8 | 
[V:3] A4G4 | 
[V:4] D,4z2G,2 | 
[V:1] z8 | 
[V:2] z8 | 
[V:3] z2c2A2B2 | 
[V:4] E,2F,4E,D, | 
[V:1] z8 | 
[V:2] z4z2e2- | 
[V:3] c3BAGB2- | 
[V:4] C,2F,3E,G,2- | 
[V:1] z4G4 | 
[V:2] edd4^c2 | 
[V:3] B2A4G2 | 
[V:4] G,F,D,2E,4 | 
[V:1] F3GAFB2- | 
[V:2] d8 | 
[V:3] A4z4 | 
[V:4] D,4z4 | 
[V:1] BAA4GF | 
[V:2] d8 | 
[V:3] z8 | 
[V:4] z8 | 
[V:1] E2G4A2 | 
[V:2] c8 | 
[V:3] z8 | 
[V:4] C,6F,,2 | 
[V:1] G4E3F | 
[V:2] c8 | 
[V:3] z2G2G2A2 | 
[V:4] C,8 | 
[V:1] GAG3FED | 
[V:2] c8 | 
[V:3] G4C2c2- | 
[V:4] C,8 | 
[V:1] C2F4E2 | 
[V:2] c8 | 
[V:3] c2BAG4 | 
[V:4] C,8 | 
[V:1] F4z4 | 
[V:2] c4z4 | 
[V:3] F4z4 | 
[V:4] F,,4z4 | 
[V:1] F8 | 
[V:2] c8 | 
[V:3] F8 | 
[V:4] F,8 | 
[V:1] A4A4 | 
[V:2] f4f4 | 
[V:3] c4c4 | 
[V:4] F,4F,4 | 
[V:1] B4B4 | 
[V:2] f4f4 | 
[V:3] d4d4 | 
[V:4] B,,4B,,4 | 
[V:1] A4G4 | 
[V:2] f4e4 | 
[V:3] c4c4 | 
[V:4] F,4C,4 | 
[V:1] G4B4 | 
[V:2] d4e4 | 
[V:3] B4B4 | 
[V:4] G,4G,4 | 
[V:1] A6G2- | 
[V:2] f2edc2G2 | 
[V:3] c4A2B2- | 
[V:4] F,6_E,2 | 
[V:1] GFF4E2 | 
[V:2] B4c4 | 
[V:3] BAF2G4 | 
[V:4] D,4C,4 | 
[V:1] F4z4 | 
[V:2] A8- | 
[V:3] F8 | 
[V:4] F,,8- | 
[V:1] F4F2G2 | 
[V:2] A8 | 
[V:3] z8 | 
[V:4] F,,8 | 
[V:1] A2c2c2B2 | 
[V:2] z8 | 
[V:3] F4F2G2 | 
[V:4] z8 | 
[V:1] A4z2G2 | 
[V:2] z8 | 
[V:3] A2c2c2B2 | 
[V:4] z8 | 
[V:1] A2c4B2 | 
[V:2] z8 | 
[V:3] A4z2G2 | 
[V:4] z8 | 
[V:1] A2GFE2D2 | 
[V:2] z8 | 
[V:3] A2c4B2 | 
[V:4] z8 | 
[V:1] A3GF2E2 | 
[V:2] z8 | 
[V:3] A2d4c2- | 
[V:4] z8 | 
[V:1] D4C4 | 
[V:2] z4z2c2 | 
[V:3] c2=B2c4 | 
[V:4] z8 | 
[V:1] c8 | 
[V:2] c3cA2A2 | 
[V:3] z8 | 
[V:4] z4z2F,2 | 
[V:1] z8 | 
[V:2] c2c2d4 | 
[V:3] z8 | 
[V:4] F,3F,D,2D,2 | 
[V:1] z8 | 
[V:2] z2c2B2G2- | 
[V:3] z8 | 
[V:4] F,2F,2G,4 | 
[V:1] z8 | 
[V:2] G2c4=B2 | 
[V:3] z8 | 
[V:4] E,2C,2D,4 | 
[V:1] z2G2G3G | 
[V:2] c8 | 
[V:3] z8 | 
[V:4] C,8 | 
[V:1] E2E2G2G2 | 
[V:2] z8 | 
[V:3] z2c2c3c | 
[V:4] z8 | 
[V:1] A4z2G2 | 
[V:2] z8 | 
[V:3] A2A2c2c2 | 
[V:4] z8 | 
[V:1] F2D4G2- | 
[V:2] z8 | 
[V:3] d4B2G2 | 
[V:4] z8 | 
[V:1] G2F2G4 | 
[V:2] z8 | 
[V:3] A4G4 | 
[V:4] z2F,4E,2 | 
[V:1] A6GF | 
[V:2] A3Bc2d2 | 
[V:3] c4A2B2 | 
[V:4] F,6B,,2 | 
[V:1] E2F4E2 | 
[V:2] c2B2c4 | 
[V:3] G2F2G4 | 
[V:4] C,2D,2C,4 | 
[V:1] F8 | 
[V:2] c8 | 
[V:3] F8 | 
[V:4] F,,8 | 
[V:1] z4A4- | 
[V:2] z4f4- | 
[V:3] z4c4- | 
[V:4] z4F,4- | 
[V:1] A2A2A4 | 
[V:2] f2f2f4 | 
[V:3] c2c2c4 | 
[V:4] F,2F,2F,4 | 
[V:1] G4F4- | 
[V:2] e4d4- | 
[V:3] c4A4 | 
[V:4] C,4D,4 | 
[V:1] F4E4 | 
[V:2] d4c4 | 
[V:3] B4G4 | 
[V:4] B,,4C,4 | 
[V:1] z2D4D2 | 
[V:2] z2B4B2 | 
[V:3] z2G4G2 | 
[V:4] z2G,,4G,,2 | 
[V:1] C4D2C2 | 
[V:2] A4G2A2- | 
[V:3] E4D2E2- | 
[V:4] A,,4B,,2A,,2 | 
[V:1] D4C4 | 
[V:2] A2G2A4 | 
[V:3] E2D2E4 | 
[V:4] B,,4A,,4 | 
[V:1] z4D4 | 
[V:2] z4B4 | 
[V:3] z4G4 | 
[V:4] z4G,,4 | 
[V:1] E6E2 | 
[V:2] c6c2 | 
[V:3] G6G2 | 
[V:4] C,6C,2 | 
[V:1] E4E4- | 
[V:2] c4c4- | 
[V:3] G4G4- | 
[V:4] C,4C,4- | 
[V:1] E2E2F4 | 
[V:2] c2c2c4 | 
[V:3] G2G2A4 | 
[V:4] C,2C,2F,,4 | 
[V:1] z2G4G2 | 
[V:2] z2e4e2 | 
[V:3] z2c4c2 | 
[V:4] z2C,4C,2 | 
[V:1] G4G2G2 | 
[V:2] e2e4e2 | 
[V:3] G2c4c2 | 
[V:4] C,2C,4C,2 | 
[V:1] G4G2G2 | 
[V:2] e2e4e2 | 
[V:3] G2c4c2 | 
[V:4] C,2C,4C,2 | 
[V:1] G2G2AGFE | 
[V:2] e2e2fedc | 
[V:3] G2c3BAG | 
[V:4] C,4F,4 | 
[V:1] F4E4 | 
[V:2] d4c4 | 
[V:3] A4G4 | 
[V:4] F,4C,4 | 
[V:1] z2E2F3E | 
[V:2] z2c2d2d2 | 
[V:3] z2G2B2B2 | 
[V:4] C,2C,2B,,2B,,2 | 
[V:1] E2E2F3D | 
[V:2] c2c2d4 | 
[V:3] A2G2B4 | 
[V:4] C,4B,,2B,,2 | 
[V:1] E2E2F4 | 
[V:2] c2c2d4 | 
[V:3] A2G2B4 | 
[V:4] C,4B,,2B,,2 | 
[V:1] F2F2E2A2- | 
[V:2] c4c2A2 | 
[V:3] A4G2F2 | 
[V:4] F,4C,2F,2- | 
[V:1] AGF4E2 | 
[V:2] c2d2c4 | 
[V:3] A2B2G4 | 
[V:4] F,2B,,2C,4 | 
[V:1] F4z4 | 
[V:2] A4z4 | 
[V:3] F4z4 | 
[V:4] F,,4z4 | 
[V:1] F8 | 
[V:2] c8 | 
[V:3] F8 | 
[V:4] F,8 | 
[V:1] A4A4 | 
[V:2] f4f4 | 
[V:3] c4c4 | 
[V:4] F,4F,4 | 
[V:1] B4B4 | 
[V:2] f4f4 | 
[V:3] d4d4 | 
[V:4] B,,4B,,4 | 
[V:1] A4G4 | 
[V:2] f4e4 | 
[V:3] c4c4 | 
[V:4] F,4C,4 | 
[V:1] G4B4 | 
[V:2] d4e4 | 
[V:3] B4B4 | 
[V:4] G,4G,4 | 
[V:1] A6G2- | 
[V:2] f2edc2G2 | 
[V:3] c4A2B2- | 
[V:4] F,6_E,2 | 
[V:1] GFF4E2 | 
[V:2] B4c4 | 
[V:3] BAF2G4 | 
[V:4] D,4C,4 | 
[V:1] F8 ||  
[V:2] c8 ||  
[V:3] F8 ||  
[V:4] F,,8 ||  
[V:1] [M:2/1]A8 | 
[V:2] [M:2/1]c8 | 
[V:3] [M:2/1]F8 | 
[V:4] [M:2/1]F,,8 | 
[V:1] A8 | 
[V:2] c8 | 
[V:3] F8 | 
[V:4] F,,8 | 
[V:1] A8 | 
[V:2] c8 | 
[V:3] F4F4- | 
[V:4] F,,4F,,4- | 
[V:1] c8 | 
[V:2] c6BA | 
[V:3] F4E4 | 
[V:4] F,,4A,,4 | 
[V:1] c8 | 
[V:2] G4A4 | 
[V:3] E8 | 
[V:4] C,8 | 
[V:1] d6cB | 
[V:2] B8 | 
[V:3] !fermata!F8- | 
[V:4] B,,6A,,G,, | 
[V:1] !fermata!A8- | 
[V:2] !fermata!c8- | 
[V:3] F8- | 
[V:4] !fermata!F,,8- | 
[V:1] A8 | 
[V:2] c8 | 
[V:3] F8 | 
[V:4] F,,8 | 
[V:1] E8 | 
[V:2] c8 | 
[V:3] G8 | 
[V:4] C,8 | 
[V:1] E4E4- | 
[V:2] c4c4- | 
[V:3] G4A4- | 
[V:4] C,4A,,4- | 
[V:1] E2E2E4 | 
[V:2] c2c2c4 | 
[V:3] A2G2G2c2- | 
[V:4] A,,2C,2C,4 | 
[V:1] z4E4 | 
[V:2] z4c4 | 
[V:3] c2BAG2A2- | 
[V:4] z4C,4 | 
[V:1] F4F4 | 
[V:2] A4B4 | 
[V:3] AGFEF4 | 
[V:4] D,4D,4 | 
[V:1] E6F2 | 
[V:2] c8 | 
[V:3] G4z2A2 | 
[V:4] C,8 | 
[V:1] G2A4GF | 
[V:2] z4c4 | 
[V:3] G2c4BA | 
[V:4] C,4A,,4 | 
[V:1] E2F4E2 | 
[V:2] c2B2c2c2 | 
[V:3] G2F2G4 | 
[V:4] C,2D,2C,4 | 
[V:1] F4z4 | 
[V:2] A8 | 
[V:3] F4z2c2- | 
[V:4] F,,4F,4 | 
[V:1] z8 | 
[V:2] z8 | 
[V:3] c2B2A2c2- | 
[V:4] E,2D,2F,4 | 
[V:1] z8 | 
[V:2] z8 | 
[V:3] c2F2z2c2 | 
[V:4] F,4A,4 | 
[V:1] z8 | 
[V:2] z8 | 
[V:3] B2A2G4 | 
[V:4] G,2F,4E,2 | 
[V:1] z8 | 
[V:2] c4c2c2 | 
[V:3] F8 | 
[V:4] F,4z4 | 
[V:1] F4F2F2 | 
[V:2] d4B2f2- | 
[V:3] z8 | 
[V:4] z8 | 
[V:1] G4F4 | 
[V:2] f2e2f2B2- | 
[V:3] z8 | 
[V:4] z8 | 
[V:1] B4G4 | 
[V:2] B2_e3dcB | 
[V:3] z8 | 
[V:4] z8 | 
[V:1] A4B4- | 
[V:2] c2d2G2d2- | 
[V:3] z8 | 
[V:4] z8 | 
[V:1] B4A4 | 
[V:2] d2cBf4 | 
[V:3] z4c4- | 
[V:4] G,4F,4 | 
[V:1] G4F4- | 
[V:2] e4d4- | 
[V:3] c4A4 | 
[V:4] C,4D,4- | 
[V:1] F2EDE4 | 
[V:2] d2cBA2G2 | 
[V:3] B4c4 | 
[V:4] D,4C,4 | 
[V:1] E8 | 
[V:2] c8 | 
[V:3] G8 | 
[V:4] C,8 | 
[V:1] F8 | 
[V:2] c8 | 
[V:3] F8 | 
[V:4] [F,,8F,8] | 
[V:1] F8 | 
[V:2] c8 | 
[V:3] F8 | 
[V:4] F,8 | 
[V:1] A4A4 | 
[V:2] f4f4 | 
[V:3] c4c4 | 
[V:4] F,4F,4 | 
[V:1] B4B4 | 
[V:2] f4f4 | 
[V:3] d4d4 | 
[V:4] B,,4B,,4 | 
[V:1] A4G4 | 
[V:2] f4e4 | 
[V:3] c4c4 | 
[V:4] F,4C,4 | 
[V:1] G4B4 | 
[V:2] d4e4 | 
[V:3] B4B4 | 
[V:4] G,4G,4 | 
[V:1] A6G2- | 
[V:2] f2edc2G2 | 
[V:3] c4A2B2- | 
[V:4] F,6_E,2 | 
[V:1] GFF4E2 | 
[V:2] B4c4 | 
[V:3] BAF2G4 | 
[V:4] D,4C,4 | 
[V:1] F4z2c2 | 
[V:2] z2c2c3B | 
[V:3] F8 | 
[V:4] F,,8- | 
[V:1] c3BA2A2 | 
[V:2] A3GF4 | 
[V:3] z2c2c3B | 
[V:4] F,,8 | 
[V:1] c4A3G | 
[V:2] z8 | 
[V:3] A4c4 | 
[V:4] z2F,2F,3E, | 
[V:1] F4A4 | 
[V:2] z4z2f2 | 
[V:3] d8 | 
[V:4] D,4F,4 | 
[V:1] B4G4 | 
[V:2] d2e3dcB | 
[V:3] z4c4- | 
[V:4] G,4C,4 | 
[V:1] A2G2F2G2- | 
[V:2] A2d4c2 | 
[V:3] c2B2A2G2 | 
[V:4] F,2G,2D,2E,2 | 
[V:1] GFF4E2 | 
[V:2] c4z2c2 | 
[V:3] A4G4 | 
[V:4] F,4C,4 | 
[V:1] F2c2c3B | 
[V:2] c3BA4 | 
[V:3] F4z2c2 | 
[V:4] F,,8 | 
[V:1] A4z4 | 
[V:2] z8 | 
[V:3] c3BA2c2 | 
[V:4] z2F,2F,3E, | 
[V:1] z8 | 
[V:2] z8 | 
[V:3] d4z2B2 | 
[V:4] D,2F,2G,4 | 
[V:1] z8 | 
[V:2] z8 | 
[V:3] c4A2G2 | 
[V:4] z2E,2F,2E,2 | 
[V:1] z8 | 
[V:2] z8 | 
[V:3] A4G4 | 
[V:4] C,2F,4E,2 | 
[V:1] z4z2c2 | 
[V:2] z2c2c3B | 
[V:3] F8 | 
[V:4] F,4F,,4 | 
[V:1] c3BA2A2 | 
[V:2] A3GF4 | 
[V:3] z2c2c3B | 
[V:4] F,,8 | 
[V:1] c4A3G | 
[V:2] z8 | 
[V:3] A4c4 | 
[V:4] z2F,2F,3E, | 
[V:1] F4A4 | 
[V:2] z4z2f2- | 
[V:3] d8 | 
[V:4] D,4F,4 | 
[V:1] B6AG | 
[V:2] f2ede4 | 
[V:3] z4B4 | 
[V:4] G,8 | 
[V:1] A3GF2E2 | 
[V:2] f3ed2c2- | 
[V:3] c3BA2G2- | 
[V:4] F,6C,2 | 
[V:1] G2D2E4 | 
[V:2] c2B4A2 | 
[V:3] G2F4E2 | 
[V:4] _E,2D,2C,2C,2 | 
[V:1] D8 | 
[V:2] B4z4 | 
[V:3] F8 | 
[V:4] B,,8 | 
[V:1] z4B3B | 
[V:2] B3BB2B2 | 
[V:3] z8 | 
[V:4] z8 | 
[V:1] B2B2G2G2 | 
[V:2] G2G2B2c2 | 
[V:3] z8 | 
[V:4] z8 | 
[V:1] B2B2c4 | 
[V:2] d4z4 | 
[V:3] z4c3B | 
[V:4] z8 | 
[V:1] z8 | 
[V:2] z8 | 
[V:3] A3GA3G | 
[V:4] F,3E,D,2C,2 | 
[V:1] z8 | 
[V:2] z4B2B2 | 
[V:3] F4z4 | 
[V:4] D,3C,B,,4 | 
[V:1] B2B2G2G2 | 
[V:2] G2G2B2c2 | 
[V:3] z8 | 
[V:4] z8 | 
[V:1] B2B2c4 | 
[V:2] d4z4 | 
[V:3] z4c3B | 
[V:4] z8 | 
[V:1] z8 | 
[V:2] z8 | 
[V:3] A3GA3G | 
[V:4] F,3E,D,2C,2 | 
[V:1] z8 | 
[V:2] z4B2B2 | 
[V:3] F4z4 | 
[V:4] D,3C,B,,4 | 
[V:1] B3BG2G2 | 
[V:2] G2G2B2c2 | 
[V:3] z8 | 
[V:4] z8 | 
[V:1] B2B2c4 | 
[V:2] d4z4 | 
[V:3] z4c3B | 
[V:4] z8 | 
[V:1] z8 | 
[V:2] z8 | 
[V:3] A2G2A3G | 
[V:4] F,3E,D,2C,2 | 
[V:1] z8 | 
[V:2] f3ed4 | 
[V:3] F4z4 | 
[V:4] D,3C,B,,4 | 
[V:1] c3BA2G2 | 
[V:2] c4f2e2 | 
[V:3] c6c2 | 
[V:4] z2F,4C,2 | 
[V:1] A2G3FF2- | 
[V:2] f2e2c2d2 | 
[V:3] c2c2A4 | 
[V:4] F,2C,2F,4 | 
[V:1] F2E2F4 | 
[V:2] c4A4 | 
[V:3] G4F4 | 
[V:4] C,4D,4 | 
[V:1] z8 | 
[V:2] z8 | 
[V:3] z2B4A2 | 
[V:4] B,,4z2F,2- | 
[V:1] z8 | 
[V:2] z8 | 
[V:3] c4d4 | 
[V:4] F,2E,2G,4 | 
[V:1] z8 | 
[V:2] z8 | 
[V:3] c3BA2G2 | 
[V:4] A,2F,4E,2 | 
[V:1] z8 | 
[V:2] z8 | 
[V:3] F2A2B4 | 
[V:4] D,2C,2D,2E,2 | 
[V:1] F4F4 | 
[V:2] z8 | 
[V:3] z2A2B2d2- | 
[V:4] F,4z4 | 
[V:1] F4F4 | 
[V:2] z8 | 
[V:3] d2cBA2B2 | 
[V:4] z8 | 
[V:1] E8 | 
[V:2] z8 | 
[V:3] c3BAGc2- | 
[V:4] z8 | 
[V:1] G8 | 
[V:2] z8 | 
[V:3] c2BAB2c2 | 
[V:4] z8 | 
[V:1] A8 | 
[V:2] f3ed2c2 | 
[V:3] F4z4 | 
[V:4] z4F,3E, | 
[V:1] A4A4 | 
[V:2] d2e2f2ed | 
[V:3] z4F3G | 
[V:4] D,2C,2D,3E, | 
[V:1] A6GF | 
[V:2] c8- | 
[V:3] ABc4BA | 
[V:4] F,4F,,4 | 
[V:1] E2F4E2 | 
[V:2] c8 | 
[V:3] GFA2G4 | 
[V:4] C,8 | 
[V:1] F4z2D2 | 
[V:2] A4z2B2 | 
[V:3] F4z2F2 | 
[V:4] F,,4z2B,,2 | 
[V:1] D4D4 | 
[V:2] B4B4 | 
[V:3] F4F4 | 
[V:4] B,,4B,,4 | 
[V:1] D4C4 | 
[V:2] B4A4 | 
[V:3] F4F4 | 
[V:4] B,,4F,,4 | 
[V:1] z8 | 
[V:2] z8 | 
[V:3] F2F2F4 | 
[V:4] B,,2B,,2D,4 | 
[V:1] z2F2F2F2 | 
[V:2] z2B2d2d2 | 
[V:3] F4z4 | 
[V:4] B,,4z4 | 
[V:1] F4z4 | 
[V:2] B4z4 | 
[V:3] z2F2F2F2 | 
[V:4] z2B,,2D,2D,2 | 
[V:1] z2F2F2F2 | 
[V:2] z2B2d2d2 | 
[V:3] F4z4 | 
[V:4] B,,4z4 | 
[V:1] F4z4 | 
[V:2] B4z4 | 
[V:3] z2F2F2F2 | 
[V:4] z2B,,2D,2D,2 | 
[V:1] z4F4 | 
[V:2] z4d4 | 
[V:3] F4B4 | 
[V:4] B,,4B,,4 | 
[V:1] F4z2F2 | 
[V:2] d4z2d2 | 
[V:3] B4z2B2 | 
[V:4] B,,4z2B,,2 | 
[V:1] F4F4 | 
[V:2] d4d4 | 
[V:3] B4B4 | 
[V:4] B,,4B,,4 | 
[V:1] z2D2F4 | 
[V:2] z2B2A4 | 
[V:3] z2F2F4 | 
[V:4] z2B,,2D,4 | 
[V:1] D2D2F2F2 | 
[V:2] B2B2A2A2 | 
[V:3] F2F2F2F2 | 
[V:4] B,,2B,,2D,2D,2 | 
[V:1] D2D2D4 | 
[V:2] B2B2B4 | 
[V:3] F2F2F4 | 
[V:4] B,,2B,,2B,,4 | 
[V:1] C4z2A2 | 
[V:2] A4z2c2 | 
[V:3] F4z2F2 | 
[V:4] F,,4z2F,,2 | 
[V:1] A4A4 | 
[V:2] c4c4 | 
[V:3] F4F4 | 
[V:4] F,,4F,,4 | 
[V:1] D4E2G2- | 
[V:2] B4G4 | 
[V:3] F4E4 | 
[V:4] B,,4C,4 | 
[V:1] GFEDE4 | 
[V:2] c8 | 
[V:3] G8 | 
[V:4] C,8 | 
[V:1] F4F3E | 
[V:2] c8 | 
[V:3] A8 | 
[V:4] F,,8 | 
[V:1] D2C2D2E2 | 
[V:2] z2f4e2 | 
[V:3] A6A2 | 
[V:4] F,3E,D,2C,2 | 
[V:1] F3GA2GF | 
[V:2] d4d4 | 
[V:3] A4A4 | 
[V:4] D,3E,F,4 | 
[V:1] E2F4E2 | 
[V:2] c4c4 | 
[V:3] G4G4 | 
[V:4] C,8 | 
[V:1] F8 | 
[V:2] A8 | 
[V:3] F8 | 
[V:4] F,,8 | 
[V:1] z4A4 | 
[V:2] z4c4 | 
[V:3] z4F4 | 
[V:4] z4F,4 | 
[V:1] A4A4 | 
[V:2] f4f4 | 
[V:3] c4c4 | 
[V:4] F,4F,4 | 
[V:1] B4B4 | 
[V:2] f4f4 | 
[V:3] d4d4 | 
[V:4] B,,4B,,4 | 
[V:1] A4G4 | 
[V:2] f4e4 | 
[V:3] c4c4 | 
[V:4] F,4C,4 | 
[V:1] G4B4 | 
[V:2] d4e4 | 
[V:3] B4B4 | 
[V:4] G,4G,4 | 
[V:1] A6G2- | 
[V:2] f2edc2G2 | 
[V:3] c4A2B2- | 
[V:4] F,6_E,2 | 
[V:1] GFF4E2 | 
[V:2] B4c4 | 
[V:3] BAF2G4 | 
[V:4] D,4C,4 | 
[V:1] F4A2c2- | 
[V:2] c8 | 
[V:3] F8- | 
[V:4] F,,4F,4- | 
[V:1] cBA4GF | 
[V:2] A4B4 | 
[V:3] F8 | 
[V:4] F,4D,4 | 
[V:1] !fermata!E8- | 
[V:2] !fermata!c8- | 
[V:3] !fermata!G8- | 
[V:4] !fermata!C,8- | 
[V:1] E8 | 
[V:2] c8 | 
[V:3] G8 | 
[V:4] C,8 | 
[V:1] F8 |]  
[V:2] c8 |]  
[V:3] F8 |]  
[V:4] F,,8 |]  



